X:205
T:Huckleberry Hornpipe
C:Byron Berline - Arr. David Peters
N:Tabeldited by Kim Davis and Mike Stangeland Special Thanks to Kristi Sberna
R:bluegrass
L:1/8
Q:1/4=245
M:4/4
K:A
z2 e2 f2 g2 |: "A"ae cf ec AB | cA GB Aa ga | "D"fd Bc dA FB | AF (3EFE DE FD | 
"E"EF GB c^d eg | (3f=gf e^g be gb | fg eg fe gf |1 e"A"c (3BcB A2 (3efg :|2 e"A"c (3BcB A2 a=g | 
|: "D"fd Bc dc d^d | "A"ef ed cB AF | "E"EF GA BA GB | "A"AB cd ea ga | "D"fd Bc dc d^d | 
"A"ef ed cB AF | "E"EF GA BA GB |1 A"A"c Bc A2 a=g :|2 A"A"c Bc A4 |: "A"A,B, CE FG Ac | 
eA ce (3BcB AF | "D"DE FA df ad' | ba ef d4 | "E"EF GB c^d eg | (3fgf eg be gb | 
fg eg fe cf | e"A"c (3BcB A4 :| 


